X: 1
T:Planxty Ed Casey
M:C
L:1/8
Q:100
C:David de la Barre
N:This tune was written for my friend, fellow piper, whistle player and
N:lover of Celtic music, Ed Casey of Springfield, Massachusetts.
N:1997 David de la Barre
N:All RIghts Reserved
K:G
FE| "G"D2 G2 GF GB| "D"A2 D2 AG Ac| "G"B2 GB "Am"cB AG| "D"FG EF D2 FE|
"G"D2 G2 GF GB| "D"A2 D2 AG Ac| "G"Bd BG "C"cB "D"AF| "C"G2 "D"GF "G"G2 :|
Bc| "G"d2 G2 d3 e| "D"dc BA "Em"G2 AB| "Am"A2 E2 A3 B| "D"AG FE D2 Bc|
"G"d2 G2 "Am"e2 c2| "Bm"d2 B2 "C"cB AG| "G"D2 GD "D"FG AF|"C"G2 "D"GF "G"G2:|
%1997 David de la Barre
